!!!!SEGMENT: pl-cz--iii-979--004_kasprzykowski-ignacy--missa-es-et-incarnatus.krn
!!!cenid: 18xx:859
!!!COM: Kasprzykowski, Ignacy
!!!COM-rismid: pe30098316
!!!CDT: -1752/02/17
!!!CNT:
!!!OPR: Missa Es
!!!OTL: Et incarnatus
!!!OMV: 004
!!!PDT:
!!!AGN: Sacred; Mass
!!!SMS-siglum: PL-CZ
!!!SMS-shelfmark: III-979
!!!SMS-shelfwork: 001-004 M
!!!SMS-variant:
!!!SMS-altvar:
!!!NIFC-rismid: 300000565
!!!URL-scan: http://repozytorium.nifc.pl/skany/pl-cz-nut--iii-979
!!!ONB-nifc: UWAGA: części Mszy: Kyrie, Gloria, Credo, Et incarnatus, Et resurrexit, Sanctus, Pleni, Benedictus, Agnus
!!!key:
**kern	**kern	**text	**kern	**text	**kern
*part4	*part3	*part3	*part2	*part2	*part1
*staff4	*staff3	*staff3	*staff2	*staff2	*staff1
*Ivioln	*Iempty	*	*Ivox	*	*Iclars
*I"Violino Primo in Dis	*I"Baſso in Dis	*	*I"Canto in. Dis	*	*I"Clarinetto Primo in B
*I'vl 1	*I'B	*	*I'S	*	*I'cl 1
*clefG2	*clefF4	*	*clefC1	*	*
*	*	*	*	*	*ITrd1c2
*k[b-e-a-]	*k[a-e-b-]	*	*k[b-e-a-]	*	*
*f:	*f:	*	*f:	*	*
*M4/4	*M4/4	*	*M4/4	*	*
*met(c)	*met(c)	*	*met(c)	*	*
=1	=1	=1	=1	=1	=1
!LO:TX:a:Bi:t=Adagio	!LO:TX:a:B:t=Solo:color=red	!	!	!	!
!LO:TX:b:t=7.	!LO:TX:a:B:t=Adagio:color=red	!	!LO:TX:a:B:t=Adagio:color=red	!	!LO:TX:a:i:t=Et incarnatus Tacet.
00r	4AA-/	Et	4cc\	Et	1ryy
.	8AA-/	in-	8cc\	in-	.
.	8AA-/	-Car-	8cc\	-Car-	.
.	4GG/	-na-	4dd-X\	-na-	.
.	4AA-/	-tus	4cc\	-tus	.
=2	=2	=2	=2	=2	=2
.	4GG/	est	4b-\	est	1ryy
.	8GG/	de	8b-\	de	.
.	8GG/	spi-	8b-\	spi-	.
.	4AA-/	-ri-	4cc\	-ri-	.
.	4AA-/	-tu	(8a-\L	-tu	.
.	.	.	8e-\J)	.	.
!	!LO:LB:g=original	!	!	!	!
=3	=3	=3	=3	=3	=3
.	4AA-/	San-	4cc\	San-	1ryy
.	8AA-/	-cto	8cc\	-cto	.
.	8AA-/	ex	8cc\	Ex	.
.	4GG/	Ma-	(8ee-\L	Ma-	.
.	.	.	8dd-X\J)	.	.
.	4AA-/	-ri-	4cc\	-ri-	.
=4	=4	=4	=4	=4	=4
.	8GG/	-a	8b-\	-a	1ryy
.	8GG/	Vir-	8b-\	Vir-	.
!	!	!	!LO:LB:g=original	!	!
.	8BB-/	-gi-	8g\	-gi-	.
.	8BB-/	-ne	8g\	-ne	.
.	4AA-/	et	4a-\	et	.
.	4r	.	4r	.	.
=5	=5	=5	=5	=5	=5
0r	4GG/	ho-	4b-\	Ho-	1ryy
.	8GG/	-mo	8b-\	-mo	.
.	8GG/	fa-	8b-\	fa-	.
.	4AA-/	-ctus	4cc\	-ctus	.
.	8AA-/	paſ-	8cc\	paſ-	.
.	8AA-/	-sus	8cc\	-sus	.
=6	=6	=6	=6	=6	=6
.	4GG/	et	4dd-X\	et	1ryy
.	4AA-/	Se-	4cc\	Se-	.
.	4GG/	-pul-	4b-\	-pul-	.
.	4r	.	4r	.	.
!	!LO:LB:g=original	!	!	!	!
=7	=7	=7	=7	=7	=7
1r	4AA-/	-tus	4cc\	-tus	1ryy
.	8AA-/	est	8cc\	eſt	.
.	8AA-/	Se-	8cc\	et	.
.	4GG/	-pul-	(8ee-\L	Se-	.
.	.	.	8dd\J)	.	.
.	4AA-/	.	4cc\	-pul-	.
!	!	!	!LO:LB:g=original	!	!
=8	=8	=8	=8	=8	=8
2r	8GG/	-tus	8b-\	-tus	1ryy
.	8GG/	Se-	8b-\	Se-	.
.	8BB-/	-pul-	8g\	-pul-	.
.	8BB-/	-tus	8g\	-tus	.
4r	4AA-/	est	4a-\	est	.
!LO:TX:a:i:t=Solo.	!	!	!	!	!
32r	4r	.	4r	.	.
32ee-\LLL	.	.	.	.	.
32dd\	.	.	.	.	.
32ee-\JJJ	.	.	.	.	.
32ff\LLL	.	.	.	.	.
32gg\	.	.	.	.	.
32aa-\	.	.	.	.	.
32bb-\JJJ	.	.	.	.	.
=9	=9	=9	=9	=9	=9
!	!LO:TX:a:t=6	!	!LO:TX:a:t=6	!	!
4ccc\	1r	.	1r	.	1ryy
8cccS\L	.	.	.	.	.
8ccc\J	.	.	.	.	.
8.eee-\L	.	.	.	.	.
16ddd-X\Jk	.	.	.	.	.
4bb-\	.	.	.	.	.
=10	=10	=10	=10	=10	=10
32aa-\LLL	1r	.	1r	.	1ryy
8qqgg/	.	.	.	.	.
32aa-\	.	.	.	.	.
32gg\	.	.	.	.	.
32aa-\JJJ	.	.	.	.	.
32ccc\LLL	.	.	.	.	.
32bb-\	.	.	.	.	.
32aa-\	.	.	.	.	.
32gg\JJJ	.	.	.	.	.
32gg\LLL	.	.	.	.	.
32ff\	.	.	.	.	.
32ddd\	.	.	.	.	.
32ccc\JJJ	.	.	.	.	.
32aa-\LLL	.	.	.	.	.
!LO:TX:t=P:problem:fragment nieczytelny	!	!	!	!	!
32bb-\	.	.	.	.	.
32aa-\	.	.	.	.	.
32ff\JJJ	.	.	.	.	.
!LO:LB:g=original	!	!	!	!	!
(8.ee-S\L	.	.	.	.	.
16een\Jk)	.	.	.	.	.
32gg\LLL	.	.	.	.	.
32ff\	.	.	.	.	.
32ee-X\	.	.	.	.	.
32dd-X\JJJ	.	.	.	.	.
32cc\LLL	.	.	.	.	.
32b-\	.	.	.	.	.
32ff\	.	.	.	.	.
32g\JJJ	.	.	.	.	.
=11	=11	=11	=11	=11	=11
8.ccc\L	1r	.	1r	.	1ryy
16bb-\Jk	.	.	.	.	.
8aan\L	.	.	.	.	.
8aa\J	.	.	.	.	.
(32bb-\LLL	.	.	.	.	.
32aa\)	.	.	.	.	.
(32ccc\	.	.	.	.	.
32bb-\JJJ)	.	.	.	.	.
(32ddd\LLL	.	.	.	.	.
32ccc\)	.	.	.	.	.
(32eee-\	.	.	.	.	.
32ddd\JJJ)	.	.	.	.	.
4fff\	.	.	.	.	.
=12	=12	=12	=12	=12	=12
16eee-\LL	1r	.	1r	.	1ryy
16ccc\J	.	.	.	.	.
8.aaa-\J	.	.	.	.	.
16aa-\LL	.	.	.	.	.
16ccc\	.	.	.	.	.
16bb-\JJ	.	.	.	.	.
8aa-L\	.	.	.	.	.
16r	.	.	.	.	.
16ee-Jk\	.	.	.	.	.
16ddn\LL	.	.	.	.	.
16ee-\	.	.	.	.	.
16dd-X\	.	.	.	.	.
16b-\JJ	.	.	.	.	.
=13	=13	=13	=13	=13	=13
8a-L/	1r	.	1r	.	1ryy
16r	.	.	.	.	.
16e-Jk/	.	.	.	.	.
(16dn/LL	.	.	.	.	.
16e-/	.	.	.	.	.
16d-X/	.	.	.	.	.
16B-/JJ)	.	.	.	.	.
4c 4A-/	.	.	.	.	.
8cL 8A-/	.	.	.	.	.
!LO:TX:t=P:problem:fragment nieczytelny	!	!	!	!	!
8cJ 8A-/	.	.	.	.	.
=14	=14	=14	=14	=14	=14
2c 2A-;/	1r	.	1r	.	1ryy
2r	.	.	.	.	.
==	==	==	==	==	==
*-	*-	*-	*-	*-	*-
!!!system-decoration: <s1>[(s2,s3)]<s4>
!!!AIN: 1 clars 1 empty 1 violn 1 vox
!!!ENC: Anastazja Marusiak
!!!END: 2020-08-10
!!!ENC: Andrzej Kubiczek
!!!END: 2021-11-19
